web/ui/src/components/theme/button/svgs/refresh.svg

<svg height="16" viewBox="0 0 16 16" width="16" xmlns="http://www.w3.org/2000/svg"><g fill="none"><path d="m0 0h16v16h-16z" fill="#000" opacity="0"/><path d="m15.1237037 8.046875c-.0031481-.1828125-.0865741-.3625-.2424074-.4828125-.275463-.2140625-.6737037-.1671875-.8909259.10625-.0897223.1140625-.1337963.246875-.1353704.38125h-.0062963c-.0094444 1.2234375-.4108333 2.453125-1.2277778 3.4890625-1.9660185 2.4875-5.60370368 2.9234375-8.1096296.9734375-2.50592593-1.95-2.94666667-5.5609375-.98064815-8.0484375s5.6037037-2.9234375 8.10962965-.9734375c.4659259.3625.8594444.7828125 1.1805555 1.2421875h-1.1569444c-.3525926 0-.6406482.2859375-.6406482.6359375v.046875c0 .35.2880556.6359375.6406482.6359375h2.7908333c.3525926 0 .6406482-.2859375.6406482-.6359375v-2.771875c0-.35-.2880556-.6359375-.6406482-.6359375h-.0472222c-.3525926 0-.6406481.2859375-.6406481.6359375v1.2265625c-.3793519-.5140625-.827963-.975-1.3411112-1.375-.7492592-.5828125-1.5898148-1.003125-2.50120366-1.2484375-.87990741-.2359375-1.78657408-.3-2.69481482-.1921875-.90824074.109375-1.77398148.3859375-2.57046296.825-.82638889.453125-1.54259259 1.0609375-2.12972222 1.803125-.58712963.74375-1.01055556 1.578125-1.25768519 2.4828125-.23925926.8734375-.30379629 1.7734375-.19361111 2.675.11018519.9015625.3887963 1.7609375.83111111 2.5515625.45648148.8203125 1.0687963 1.53125 1.81648148 2.1140625.74925926.5828125 1.58981482 1.003125 2.50120371 1.2484375.8799074.2375 1.78657407.3015625 2.69481481.1921875s1.77398145-.3859375 2.57046295-.825c.8263889-.453125 1.5425926-1.0609375 2.1297222-1.803125.5871297-.74375 1.0105556-1.578125 1.2576852-2.4828125.1605556-.5859375.2424074-1.1859375.2439815-1.790625z" fill="#595959"/></g></svg>

<?xml version="1.0" encoding="UTF-8"?>
<svg width="16px" height="16px" viewBox="0 0 16 16" version="1.1" xmlns="http://www.w3.org/2000/svg" xmlns:xlink="http://www.w3.org/1999/xlink">
    <title>but_icon_Reset_default</title>
    <g id="页面-1" stroke="none" stroke-width="1" fill="none" fill-rule="evenodd">
        <g id="系统设计规范" transform="translate(-361.000000, -5692.000000)" fill-rule="nonzero">
            <g id="but_icon_Reset_default" transform="translate(361.000000, 5692.000000)">
                <rect id="矩形" fill="#000000" opacity="0" x="0" y="0" width="16" height="16"></rect>
                <path d="M15.1237037,8.046875 C15.1205556,7.8640625 15.0371296,7.684375 14.8812963,7.5640625 C14.6058333,7.35 14.2075926,7.396875 13.9903704,7.6703125 C13.9006481,7.784375 13.8565741,7.9171875 13.855,8.0515625 L13.8487037,8.0515625 C13.8392593,9.275 13.4378704,10.5046875 12.6209259,11.540625 C10.6549074,14.028125 7.01722222,14.4640625 4.5112963,12.5140625 C2.00537037,10.5640625 1.56462963,6.953125 3.53064815,4.465625 C5.49666667,1.978125 9.13435185,1.5421875 11.6402778,3.4921875 C12.1062037,3.8546875 12.4997222,4.275 12.8208333,4.734375 L11.6638889,4.734375 C11.3112963,4.734375 11.0232407,5.0203125 11.0232407,5.3703125 L11.0232407,5.4171875 C11.0232407,5.7671875 11.3112963,6.053125 11.6638889,6.053125 L14.4547222,6.053125 C14.8073148,6.053125 15.0953704,5.7671875 15.0953704,5.4171875 L15.0953704,2.6453125 C15.0953704,2.2953125 14.8073148,2.009375 14.4547222,2.009375 L14.4075,2.009375 C14.0549074,2.009375 13.7668519,2.2953125 13.7668519,2.6453125 L13.7668519,3.871875 C13.3875,3.3578125 12.9388889,2.896875 12.4257407,2.496875 C11.6764815,1.9140625 10.8359259,1.49375 9.92453704,1.2484375 C9.04462963,1.0125 8.13796296,0.9484375 7.22972222,1.05625 C6.32148148,1.165625 5.45574074,1.4421875 4.65925926,1.88125 C3.83287037,2.334375 3.11666667,2.9421875 2.52953704,3.684375 C1.94240741,4.428125 1.51898148,5.2625 1.27185185,6.1671875 C1.03259259,7.040625 0.968055556,7.940625 1.07824074,8.8421875 C1.18842593,9.74375 1.46703704,10.603125 1.90935185,11.39375 C2.36583333,12.2140625 2.97814815,12.925 3.72583333,13.5078125 C4.47509259,14.090625 5.31564815,14.5109375 6.22703704,14.75625 C7.10694444,14.99375 8.01361111,15.0578125 8.92185185,14.9484375 C9.83009259,14.8390625 10.6958333,14.5625 11.4923148,14.1234375 C12.3187037,13.6703125 13.0349074,13.0625 13.622037,12.3203125 C14.2091667,11.5765625 14.6325926,10.7421875 14.8797222,9.8375 C15.0402778,9.2515625 15.1221296,8.6515625 15.1237037,8.046875 Z" id="路径" fill="#595959"></path>
            </g>
        </g>
    </g>
</svg>
